newicons/zhuan_zhuan.svg

<?xml version="1.0" encoding="UTF-8"?><svg id="a" xmlns="http://www.w3.org/2000/svg" viewBox="0 0 48 48"><defs><style>.g{fill:none;stroke:#fff;stroke-linecap:round;stroke-linejoin:round;}</style></defs><path id="e" class="g" d="M24.00000048,7.39128208c-3.62489319.00504303-7.16827583.96589661-10.1900692,2.7632246-.78145218-1.09496498-2.04266548-1.74515152-3.38690853-1.74603748-2.30055618.00014496-4.16548872,1.8671217-4.16563511,4.17019939.01418447,1.29565716.62913036,2.51111221,1.66411972,3.28917217-1.57170773,2.47907066-2.40566254,5.2797451-2.42150784,8.13215828-.00029659,9.17232132,8.28236485,16.60823441,18.50000095,16.60871887,10.21763611-.00048447,18.50029755-7.43639755,18.5-16.60871887-.00170898-2.84768295-.81904221-5.64713669-2.37350464-8.12948799,1.01766586-.78849792,1.61420059-2.00357151,1.61611938-3.29184246-.00014496-2.3030777-1.86507797-4.17005348-4.16563416-4.17019939-1.33438492.01301289-2.58177948.66518784-3.3549118,1.75404644-3.02989006-1.80555344-6.58536148-2.76945162-10.22206879-2.77123356Z"/><path id="f" class="g" d="M32.24846697,24.44440174l-8.61394501,6.92421341.80718613-15.16904259-8.61394501,6.92421532"/></svg>

<?xml version="1.0" encoding="UTF-8" standalone="no"?>
<svg
   viewBox="0 0 48 48"
   version="1.1"
   id="svg1"
   sodipodi:docname="zhuan_zhuan.svg"
   inkscape:version="1.2.2 (b0a8486541, 2022-12-01)"
   xml:space="preserve"
   xmlns:inkscape="http://www.inkscape.org/namespaces/inkscape"
   xmlns:sodipodi="http://sodipodi.sourceforge.net/DTD/sodipodi-0.dtd"
   xmlns="http://www.w3.org/2000/svg"
   xmlns:svg="http://www.w3.org/2000/svg"><sodipodi:namedview
     id="namedview1"
     pagecolor="#505050"
     bordercolor="#eeeeee"
     borderopacity="1"
     inkscape:showpageshadow="0"
     inkscape:pageopacity="0"
     inkscape:pagecheckerboard="0"
     inkscape:deskcolor="#505050"
     inkscape:zoom="8.90625"
     inkscape:cx="-20.77193"
     inkscape:cy="16.280702"
     inkscape:window-width="1918"
     inkscape:window-height="1053"
     inkscape:window-x="0"
     inkscape:window-y="0"
     inkscape:window-maximized="1"
     inkscape:current-layer="svg1"
     showgrid="false" /><defs
     id="defs1"><style
       id="style1">.a { fill:none;stroke:#fff;stroke-linecap:round;stroke-linejoin:round; }
</style></defs><path
     style="fill:none;stroke:#ffffff;stroke-width:1;stroke-linecap:round;stroke-linejoin:round;stroke-opacity:1;stop-color:#000000"
     d="M 24,7.3912831 A 18.500974,16.608237 0 0 0 13.809931,10.154508 4.1658977,4.1704644 0 0 0 10.423022,8.4084701 4.1658977,4.1704644 0 0 0 6.257387,12.57867 4.1658977,4.1704644 0 0 0 7.921507,15.867842 18.500974,16.608237 0 0 0 5.499999,24 18.500974,16.608237 0 0 0 24,40.608717 18.500974,16.608237 0 0 0 42.500001,24 18.500974,16.608237 0 0 0 40.126497,15.870512 4.1658977,4.1704644 0 0 0 41.742613,12.57867 4.1658977,4.1704644 0 0 0 37.576979,8.4084701 4.1658977,4.1704644 0 0 0 34.22207,10.162517 18.500974,16.608237 0 0 0 24,7.3912831 Z"
     id="path1235" /><path
     style="fill:none;stroke:#ffffff;stroke-width:1;stroke-linecap:round;stroke-linejoin:round;stroke-opacity:1;stop-color:#000000"
     d="m 32.248468,24.444403 -8.613945,6.924214 0.807187,-15.169043 -8.613945,6.924215"
     id="path1129" /></svg>
